X: 32443
T: Pippa Sandford's
R: jig
M: 6/8
K: Gmajor
|:D|G2 G B^AB|edB A2 D|GBe dBG|BA^G A2 D|
G2 G B^AB|GB/c/d g2 e|dBG AGE|D>GF G2:|
|:d|e2 e efg|f>eA d2 A|d2 d d>fg|af/e/d e2 d|
B2 e ee/f/g|f>ed e2 g|age dBG|A>GF G2:|

